X: 25601
T: Marquis Of Huntly's, The
R: barndance
M: 4/4
K: Dmajor
|:A2|d2 fd ge fd|B2 ed cA Ac|d2 fd ge fd|Be d/c/B/A/ d2:|
|:B2|AD (3FED AB df|ge fd ed Bd|AD (3FED AB db|af ef d2:|

